X: 1
T: Old Man Dillon
M: 6/8
L: 1/8
R: jig
S: Terry Bingham: Traditional Irish Music From Doolin Co. Clare
K: Ador
EAA ABd|edB c2A|BGG dGG|Bdc BAG|
EAA ABd|ede a2g|edc Bcd|1 ecA A2G:|2 ecA A2a||
|:gef g2a|gef gdc|BGG dGG|Bdc BAG|
1 gef g2a|gef gdg|edc Bcd|ecA A2f:|
2 EAA ABd|ede a2g|edc Bcd|ecA ABG||
